X:1
T:Mazurka aus Ollersdorf
%%textfont Helvetica-Narrow 10pt
%%begintext align
B:"Das Burgenl\"andische Notenbiachl. Die ersten 24", S.Gmasz, F.Stockhammer, Eisenstadt 1983
%%endtext 
F:http://simonwascher.info/
Z:abc transcription Simon Wascher
M:3/4
L:1/8
K:C
e2cdef | ede2e2 | dBd2f2 | a2gfed |
e2cdef | ede2e2 | dBd2e2 | c2c4 :|
|:\
ccf3e | e2d^cd2 | ddg3f | f2eee2 |
=ccf3e | e2d^cd2 | gfed=cB | c2c2z2 :|
K:F
|:\
P:Trio
A2A2A2 | AGG4 | B2B2B2 | BAA4 |
c2B2A2 | c3/2B/2B4 | B2A2G2 | B3/2A/2A4 |
A2A2A2 | AGG4 | B2B2B2 | BAA4 |
c2B2A2 | c3/2B/2B4 | edcBAB | A2A2z2 :|
%%wordsfont Times-Italic 11pt
W:aus Simon Waschers TradArchiv
